X: 2328
T:Hommage A Suzanne
S:irtrad-l, 8/98, Edward A Beimborn
C:Jan Earnest
M:4/4
E:6.5
I:speed 350
K:G
D|:E3 F G3 A|B2 GB AFDF|EFGA (3BcB GB|AF (3FEF AFDF|EFGA BGGB|AF (3FEF
AFDF|G3 E F3 D|EG (3FED E2:|
ef|ge (3ege Be (3efe|ge (3ege defa|ge (3efe dBAF|GE (3FED E2 ef|\
ge (3ege Be (3efe|ge (3ege defa|(3gfe (3fed eBBA|GE (3FED E2 ef|
ge (3ege Be (3efe|ge (3ege defa|ge (3efe dBAF|GE (3FED E2 EF|\
GE (3EGE B,E (3EFE|GE (3EFE DEFA|G3 E F3 D|EG (3FED E2||
